X: 1
T: 'NEATH THE MOONLIGHT -- REEL
B: Ryan's Mammoth Collection of Fiddle Tunes
R: REEL
M: 2/4
L: 1/16
Z: Contributed 20000425021509 by Ivan Bradley bradleyi:peoplepc.com
K: A
(uAF) "Segno" |\
eccA BAFA  | EAce fgaf | eccA BAFA |1 EAcA B2 :|2 EAcA B2A2 |]
vdcde fefg | afbg afec | dcde fefg |1 afec B2B2 :|2 afec Bagf\
"Segno"[|]"_D.S."[|]|]
